X: 302
T: Missa Dies sanctificatus First Section Benedictus
C: Giovanni Perluigi da Palestrina
L: 1/4
M: 4/2
N: Derived from Benedictus_20_a.krn
Q: "Benedictus"
%%staves [1 2 3 4]
V: 1 clef=treble
V: 2 clef=treble
V: 3 clef=treble
V: 4 clef=treble-8
K: C
[V:1] z8 | 
[V:2] z8 | 
[V:3] z8 | 
[V:4] G8 | 
[V:1] z8 | 
[V:2] z8 | 
[V:3] z8 | 
[V:4] G4c4 | 
[V:1] G8 | 
[V:2] z8 | 
[V:3] z8 | 
[V:4] c2B2e3d | 
[V:1] G4c4 | 
[V:2] z8 | 
[V:3] z8 | 
[V:4] c2B2A4 | 
[V:1] c2B2e3d | 
[V:2] G8 | 
[V:3] z8 | 
[V:4] G2G2cBcd | 
[V:1] c2B2A4 | 
[V:2] G4c4 | 
[V:3] z8 | 
[V:4] e^fgef4 | 
[V:1] G2G2cBcd | 
[V:2] c2B2e3d | 
[V:3] z8 | 
[V:4] e4A4 | 
[V:1] efg4^f2 | 
[V:2] c2B2A4 | 
[V:3] z8 | 
[V:4] c2G2d4 | 
[V:1] g2e4e2 | 
[V:2] G2G2cBcd | 
[V:3] C8 | 
[V:4] e4A3B | 
[V:1] c4A2_B2 | 
[V:2] efgefed2 | 
[V:3] C4F4 | 
[V:4] cdecd2_B2 | 
[V:1] G4FGAB | 
[V:2] c4c3B | 
[V:3] F2E2A3G | 
[V:4] c4z4 | 
[V:1] cdecdef2 | 
[V:2] A2G2A4 | 
[V:3] F2E2D4 | 
[V:4] z2c2f4 | 
[V:1] e4z2c2- | 
[V:2] c8 | 
[V:3] C2C2FEFG | 
[V:4] g4a3g | 
[V:1] c2e2d4 | 
[V:2] z2g2f2ed | 
[V:3] ABc4B2 | 
[V:4] f2e2f2g2 | 
[V:1] c2c2A4 | 
[V:2] e4d4 | 
[V:3] A2G4^F2 | 
[V:4] c4d4 | 
[V:1] B4z2d2 | 
[V:2] z2d2d2d2 | 
[V:3] G8 | 
[V:4] G8- | 
[V:1] d2d2G3A | 
[V:2] G2>A2BABc | 
[V:3] z4z2G2 | 
[V:4] G8 | 
[V:1] BcdBcde2- | 
[V:2] d2g2g2g2 | 
[V:3] G2G2C3D | 
[V:4] z8 | 
[V:1] e2A4B2 | 
[V:2] c4d4 | 
[V:3] E2F4G2 | 
[V:4] z8 | 
[V:1] c2BAB4 | 
[V:2] e4d4 | 
[V:3] CDEFGABG | 
[V:4] z2g2g2g2 | 
[V:1] z8 | 
[V:2] c2>B2A2A2 | 
[V:3] AGG4^F2 | 
[V:4] c4d4 | 
[V:1] z2g2g2g2 | 
[V:2] G8 | 
[V:3] G2EFGABG | 
[V:4] e2>d2c2B2 | 
[V:1] c4d4 | 
[V:2] z8 | 
[V:3] ABc4B2 | 
[V:4] A4G4 | 
[V:1] e2>d2c2B2 | 
[V:2] z2g2g2g2 | 
[V:3] c4z4 | 
[V:4] c2>d2efge | 
[V:1] A2c4B2 | 
[V:2] c4d4 | 
[V:3] z8 | 
[V:4] fga2g2g2 | 
[V:1] A2G2A4 | 
[V:2] e2>d2cBAG | 
[V:3] z2c2c2c2 | 
[V:4] c4f3e | 
[V:1] z2d2e2g2 | 
[V:2] A2B2c2d2 | 
[V:3] F4G4 | 
[V:4] d4c2B2 | 
[V:1] f2e2d2c2 | 
[V:2] c2>B2A2GA | 
[V:3] A2>G2F2E2 | 
[V:4] A4z4 | 
[V:1] d2cB/ A/B4 | 
[V:2] BAA4^G2 | 
[V:3] D2F2E4 | 
[V:4] z8 | 
[V:1] A4z2d2 | 
[V:2] A2zAA2A2 | 
[V:3] z2^F2F2F2 | 
[V:4] d4d2d2 | 
[V:1] d2d2G4 | 
[V:2] B4z4 | 
[V:3] G3F/ E/D2E2- | 
[V:4] G2>A2B2c2- | 
[V:1] A4B4- | 
[V:2] z2d2d2d2 | 
[V:3] E2^F2G3=F | 
[V:4] c2d2G4 | 
[V:1] B2c2d4 | 
[V:2] G4A4 | 
[V:3] E4D4 | 
[V:4] z2g2g2f2 | 
[V:1] e6d2 | 
[V:2] B4c2d2- | 
[V:3] z2G2G2G2 | 
[V:4] e2>d2c2B2 | 
[V:1] e2^f2g2g2- | 
[V:2] dcc4B2 | 
[V:3] C4D4 | 
[V:4] A4G4 | 
[V:1] gfedc2B2 | 
[V:2] c4z4 | 
[V:3] E8 | 
[V:4] c2>B2A2G2 | 
[V:1] A4A4 | 
[V:2] c6c2 | 
[V:3] F6F2 | 
[V:4] F4F4 | 
[V:1] G8
[V:2] c8
[V:3] E8
[V:4] c8

